X:51
T:Jim Crow. WHG.050
R:quadrille
S:W.H.Giles MS,Bampton,Oxfordshire,1839p53
O:England
H:donated by Mrs W.R.Kettlewell to VWML,Apr 1927.
A:Bampton, Oxfordshire
N:Jim Crow is written on p22, near the tune Jenny Jones. WHG.022.
Z:PJHeadford – VMP 2009
M:C
L:1/8
Q:2/4=70
K:G
g|(fd).d.d fa.a.a|gfef g2zg|\
fgeg defd|ABAF G2zB|
A>BcA cBcA|B2G2 c2zA|\
B>cdB cdec|d2f2 g2z|]

